public/customer/6.svg

<svg width="250" height="108" viewBox="0 0 250 108" fill="none" xmlns="http://www.w3.org/2000/svg">
<path d="M100.671 39.1683H106.492V68.6574H100.671V39.1683Z" fill="white" fill-opacity="0.6"/>
<path d="M125.763 45.9087C128.778 45.9087 131.197 46.7372 133.017 48.3942C134.838 50.0513 135.749 52.5087 135.749 55.7665V68.6574H130.151V56.4409C130.151 54.4746 129.659 53.0002 128.673 52.0172C127.689 51.0062 126.285 50.5006 124.465 50.5006C122.404 50.5006 120.777 51.0904 119.583 52.27C118.389 53.4215 117.792 55.0928 117.792 57.2831V68.6574H112.194V46.1615H117.523V49.0683C118.449 48.0291 119.613 47.2428 121.016 46.7092C122.42 46.1755 124.002 45.9087 125.763 45.9087Z" fill="white" fill-opacity="0.6"/>
<path d="M162.564 46.1615L152.309 68.6574H146.533L136.278 46.1615H142.099L149.533 62.8439L157.19 46.1615H162.564Z" fill="white" fill-opacity="0.6"/>
<path d="M185.648 57.5358C185.648 57.9013 185.618 58.4204 185.558 59.0947H166.794C167.123 60.7516 167.974 62.0716 169.347 63.0547C170.751 64.0098 172.482 64.487 174.542 64.487C177.169 64.487 179.333 63.6724 181.035 62.0435L184.035 65.2874C182.961 66.4952 181.602 67.4078 179.96 68.0255C178.318 68.6436 176.467 68.9524 174.408 68.9524C171.78 68.9524 169.467 68.4609 167.466 67.4783C165.466 66.4952 163.914 65.1328 162.809 63.3916C161.734 61.6224 161.197 59.6281 161.197 57.4097C161.197 55.2188 161.72 53.2529 162.765 51.5117C163.839 49.7423 165.317 48.3662 167.198 47.3832C169.078 46.4002 171.198 45.9087 173.556 45.9087C175.885 45.9087 177.96 46.4002 179.781 47.3832C181.632 48.3381 183.065 49.7002 184.08 51.4695C185.125 53.2108 185.648 55.2331 185.648 57.5358ZM173.556 50.1215C171.765 50.1215 170.243 50.627 168.989 51.6381C167.765 52.6211 167.019 53.9412 166.75 55.5981H180.319C180.079 53.9693 179.348 52.6491 178.124 51.6381C176.9 50.627 175.378 50.1215 173.556 50.1215Z" fill="white" fill-opacity="0.6"/>
<path d="M194.114 49.4475C195.726 47.0883 198.562 46.33 202.622 46.33V50.5428C202.145 50.4585 201.712 50.4164 201.324 50.4164C199.145 50.4164 197.443 51.3994 196.219 52.607C194.995 53.7865 194.383 55.4996 194.383 57.7466V68.6574H188.785V46.1615H194.114V49.4475Z" fill="white" fill-opacity="0.6"/>
<path d="M221.507 67.4359C220.85 67.9413 220.044 68.3205 219.089 68.5732C218.164 68.8264 217.178 68.9525 216.133 68.9525C213.506 68.9525 211.476 68.3068 210.043 67.0148C208.61 65.7229 207.894 63.8408 207.894 61.3698V50.5428H203.953V46.33H207.894V41.1905H213.492V46.33H219.895V50.5428H213.492V61.2432C213.492 62.3386 213.775 63.1808 214.342 63.7709C214.909 64.3324 215.73 64.6137 216.805 64.6137C218.059 64.6137 219.104 64.3043 219.94 63.6867L221.507 67.4359Z" fill="white" fill-opacity="0.6"/>
<path fill-rule="evenodd" clip-rule="evenodd" d="M86.0309 54C86.0309 68.9201 73.1745 81.0148 57.3147 81.0148C41.4552 81.0148 28.5985 68.9201 28.5985 54C28.5985 39.0801 41.4552 26.9851 57.3147 26.9851C73.1745 26.9851 86.0309 39.0801 86.0309 54ZM77.0062 54C77.0062 64.2307 68.1903 72.5242 57.3153 72.5242C56.5613 72.5242 55.817 72.4845 55.0851 72.4072C64.9814 71.4288 72.6942 63.5542 72.6942 53.9846C72.6942 44.4634 65.058 36.6197 55.2331 35.5779C55.9173 35.5102 56.612 35.4755 57.3153 35.4755C68.1903 35.4755 77.0062 43.7693 77.0062 54ZM50.9561 67.0482C57.4459 65.9697 62.3823 60.5381 62.3823 54C62.3823 47.4617 57.4459 42.0301 50.9561 40.9519C51.7414 40.8241 52.549 40.7574 53.3732 40.7574C61.1475 40.7574 67.4499 46.6863 67.4499 54C67.4499 61.3136 61.1475 67.2426 53.3732 67.2426C52.549 67.2426 51.7414 67.1758 50.9561 67.0482Z" fill="white" fill-opacity="0.6"/>
</svg>

<svg xmlns="http://www.w3.org/2000/svg" width="250" height="108" fill="none"><path fill="#fff" fill-opacity=".6" d="M100.671 39.168h5.821v29.49h-5.821v-29.49ZM125.763 45.909c3.015 0 5.434.828 7.254 2.485 1.821 1.657 2.732 4.115 2.732 7.373v12.89h-5.598V56.441c0-1.966-.492-3.44-1.478-4.424-.984-1.01-2.388-1.516-4.208-1.516-2.061 0-3.688.59-4.882 1.769-1.194 1.151-1.791 2.823-1.791 5.013v11.374h-5.598V46.162h5.329v2.906c.926-1.039 2.09-1.825 3.493-2.359 1.404-.534 2.986-.8 4.747-.8ZM162.564 46.161l-10.255 22.496h-5.776l-10.255-22.495h5.821l7.434 16.682 7.657-16.683h5.374ZM185.648 57.536c0 .365-.03.884-.09 1.559h-18.764c.329 1.657 1.18 2.977 2.553 3.96 1.404.955 3.135 1.432 5.195 1.432 2.627 0 4.791-.815 6.493-2.443l3 3.243c-1.074 1.208-2.433 2.12-4.075 2.738-1.642.619-3.493.927-5.552.927-2.628 0-4.941-.491-6.942-1.474-2-.983-3.552-2.345-4.657-4.086-1.075-1.77-1.612-3.764-1.612-5.982 0-2.191.523-4.157 1.568-5.898 1.074-1.77 2.552-3.146 4.433-4.129 1.88-.983 4-1.474 6.358-1.474 2.329 0 4.404.491 6.225 1.474 1.851.955 3.284 2.317 4.299 4.086 1.045 1.742 1.568 3.764 1.568 6.067Zm-12.092-7.415c-1.791 0-3.313.506-4.567 1.517-1.224.983-1.97 2.303-2.239 3.96h13.569c-.24-1.629-.971-2.949-2.195-3.96-1.224-1.011-2.746-1.517-4.568-1.517ZM194.114 49.447c1.612-2.359 4.448-3.117 8.508-3.117v4.213a7.522 7.522 0 0 0-1.298-.127c-2.179 0-3.881.983-5.105 2.191-1.224 1.18-1.836 2.893-1.836 5.14v10.91h-5.598V46.162h5.329v3.285ZM221.507 67.436c-.657.505-1.463.884-2.418 1.137-.925.253-1.911.38-2.956.38-2.627 0-4.657-.646-6.09-1.938-1.433-1.292-2.149-3.174-2.149-5.645V50.543h-3.941V46.33h3.941v-5.14h5.598v5.14h6.403v4.213h-6.403v10.7c0 1.096.283 1.938.85 2.528.567.561 1.388.843 2.463.843 1.254 0 2.299-.31 3.135-.927l1.567 3.749Z"/><path fill="#fff" fill-opacity=".6" fill-rule="evenodd" d="M86.03 54c0 14.92-12.856 27.015-28.715 27.015-15.86 0-28.716-12.095-28.716-27.015s12.856-27.015 28.716-27.015C73.175 26.985 86.03 39.08 86.03 54Zm-9.024 0c0 10.23-8.816 18.524-19.69 18.524-.755 0-1.499-.04-2.23-.117 9.895-.978 17.608-8.853 17.608-18.422 0-9.522-7.636-17.365-17.46-18.407a21.143 21.143 0 0 1 2.081-.103c10.875 0 19.691 8.294 19.691 18.525Zm-26.05 13.048c6.49-1.078 11.426-6.51 11.426-13.048s-4.936-11.97-11.426-13.048a15.042 15.042 0 0 1 2.417-.195c7.775 0 14.077 5.93 14.077 13.243 0 7.314-6.303 13.243-14.077 13.243-.824 0-1.632-.067-2.417-.195Z" clip-rule="evenodd"/></svg>
